brandFactory_export/1.Light/Ajustes cloud_1Light.svg

<?xml version="1.0" encoding="UTF-8"?>
<svg width="24px" height="24px" viewBox="0 0 24 24" version="1.1" xmlns="http://www.w3.org/2000/svg" xmlns:xlink="http://www.w3.org/1999/xlink">
    <title>1.Light/Ajustes cloud_1Light</title>
    <g id="Symbols" stroke="none" stroke-width="1" fill="none" fill-rule="evenodd">
        <g id="1.Light/Ajustes-cloud_1Light" fill="#5CB615" fill-rule="nonzero">
            <path d="M17.4151261,19.6840336 C18.6420168,19.6840336 22.6352941,19.3176471 22.6352941,14.5815126 C22.6352941,10.1310924 19.112605,9.54957983 17.5966387,9.5092437 C17.3781513,9.50252101 17.189916,9.35462185 17.1327731,9.14621849 C16.0638655,5.17983193 11.5697479,4.97815126 10.6823529,4.97815126 C9.1092437,4.97815126 3.98319328,5.43193277 3.98319328,11.2705882 L3.98991597,11.405042 C3.98991597,11.6235294 3.84537815,11.8184874 3.6302521,11.8756303 C1.87226891,12.3731092 0.981512605,13.6638655 0.981512605,15.7109244 C0.981512605,19.3579832 3.83865546,19.7512605 5.06554622,19.7512605 L17.4151261,19.6840336 Z M17.9865546,8.5512605 C19.687395,8.6789916 23.6235294,9.52605042 23.6235294,14.5848739 C23.6235294,20.3731092 18.4537815,20.6655462 17.4184874,20.6655462 L5.07563025,20.7327731 C2.62184874,20.7327731 -1.77635684e-15,19.4151261 -1.77635684e-15,15.7142857 C-1.77635684e-15,12.6890756 1.74117647,11.5092437 3.00168067,11.0521008 C3.13613445,4.34285714 9.41512605,4 10.6857143,4 C11.6739496,4 16.5747899,4.22521008 17.9865546,8.5512605 L17.9865546,8.5512605 Z M11.8117647,14.2857143 C12.7294118,14.2857143 13.1563025,13.8621849 13.1563025,12.9512605 C13.1563025,12.0403361 12.7294118,11.6134454 11.8117647,11.6134454 C10.8941176,11.6134454 10.4672269,12.0369748 10.4672269,12.9512605 C10.4672269,13.8588235 10.8941176,14.2857143 11.8117647,14.2857143 Z M11.8117647,10.6319328 C13.2705882,10.6319328 14.1411765,11.4991597 14.1411765,12.9478992 C14.1411765,14.3966387 13.2705882,15.2638655 11.8117647,15.2638655 C10.3529412,15.2638655 9.48235294,14.3966387 9.48235294,12.9478992 C9.48235294,11.4991597 10.3529412,10.6319328 11.8117647,10.6319328 L11.8117647,10.6319328 Z M15.1529412,13.2806723 L16.0369748,13.2806723 L16.010084,12.5915966 L15.1529412,12.6184874 C14.9109244,12.6184874 14.702521,12.4436975 14.6655462,12.205042 C14.6117647,11.8823529 14.5243697,11.5932773 14.4,11.3478992 C14.3058824,11.1596639 14.3428571,10.9310924 14.4941176,10.7831933 L15.1495798,10.1344538 L14.6252101,9.64033613 L13.9966387,10.2890756 C13.8487395,10.4369748 13.6201681,10.4739496 13.4285714,10.3831933 C13.1630252,10.2521008 12.887395,10.1680672 12.5613445,10.1176471 C12.3226891,10.0806723 12.1445378,9.87563025 12.1445378,9.63361345 L12.1445378,8.75630252 L11.4521008,8.78319328 L11.4756303,9.63697479 C11.4756303,9.8789916 11.3008403,10.0840336 11.0588235,10.1210084 C10.7327731,10.1714286 10.4436975,10.2621849 10.194958,10.3831933 C10.0033613,10.4773109 9.77815126,10.4403361 9.62689076,10.2890756 L8.97142857,9.64033613 L8.47394958,10.1613445 L9.12605042,10.7831933 C9.28403361,10.9378151 9.31764706,11.1798319 9.20672269,11.3714286 C9.11260504,11.5428571 9.00840336,11.8789916 8.95462185,12.2117647 C8.91764706,12.4504202 8.7092437,12.6218487 8.46722689,12.6218487 L7.58319328,12.6218487 L7.60672269,13.3109244 L8.46386555,13.287395 C8.70588235,13.287395 8.91428571,13.4621849 8.9512605,13.7008403 C9.00504202,14.0302521 9.10588235,14.3697479 9.20336134,14.5411765 C9.31092437,14.7327731 9.27731092,14.9747899 9.12268908,15.1294118 L8.47058824,15.7781513 L8.99495798,16.2722689 L9.62016807,15.6235294 C9.71428571,15.5294118 9.84201681,15.4789916 9.9697479,15.4789916 C10.0436975,15.4789916 10.1176471,15.4957983 10.1882353,15.5294118 C10.4403361,15.6537815 10.7294118,15.7445378 11.0521008,15.794958 C11.2907563,15.8319328 11.4689076,16.0369748 11.4689076,16.2789916 L11.4689076,17.1563025 L12.1378151,17.1327731 L12.1378151,16.2689076 C12.1378151,16.0268908 12.3159664,15.8218487 12.5546218,15.7848739 C12.8806723,15.7344538 13.1563025,15.6470588 13.4218487,15.5193277 C13.610084,15.4285714 13.8386555,15.4655462 13.989916,15.6134454 L14.6453782,16.2621849 L15.1428571,15.7411765 L14.487395,15.1159664 C14.3361345,14.9680672 14.2991597,14.7394958 14.3932773,14.5512605 C14.5176471,14.3058824 14.605042,14.0168067 14.6588235,13.6941176 C14.702521,13.4554622 14.9109244,13.2806723 15.1529412,13.2806723 L15.1529412,13.2806723 Z M16.0369748,11.6369748 C16.5680672,11.6369748 16.9983193,12.0638655 16.9983193,12.5915966 L16.9983193,13.3042017 C16.9983193,13.8319328 16.5680672,14.2588235 16.0369748,14.2588235 L15.5529412,14.2588235 C15.5159664,14.3966387 15.4756303,14.5310924 15.4252101,14.6554622 L15.8420168,15.0689076 C16.0235294,15.2470588 16.1243697,15.4890756 16.1243697,15.7478992 C16.1243697,16.0033613 16.0235294,16.2453782 15.8420168,16.4268908 L15.3176471,16.9478992 C14.9411765,17.3243697 14.3260504,17.3243697 13.9495798,16.9478992 L13.5327731,16.5344538 C13.405042,16.5848739 13.2705882,16.6252101 13.1327731,16.6621849 L13.1327731,17.1394958 C13.1327731,17.6672269 12.702521,18.0941176 12.1714286,18.0941176 L11.4554622,18.0941176 C10.9243697,18.0941176 10.4941176,17.6672269 10.4941176,17.1394958 L10.4941176,16.6588235 C10.3563025,16.6218487 10.2218487,16.5815126 10.0941176,16.5344538 L9.67731092,16.9478992 C9.49579832,17.1294118 9.25378151,17.2302521 8.99495798,17.2302521 L8.99159664,17.2302521 C8.73277311,17.2302521 8.4907563,17.1327731 8.30588235,16.9478992 L7.78151261,16.4268908 C7.6,16.2453782 7.49915966,16.0033613 7.49915966,15.7478992 C7.49915966,15.4890756 7.6,15.2470588 7.78487395,15.0655462 L8.19495798,14.6554622 C8.14453782,14.5176471 8.10420168,14.3798319 8.07394958,14.2521008 L7.58991597,14.2521008 C7.05882353,14.2521008 6.62857143,13.8218487 6.62857143,13.297479 L6.62857143,12.5848739 C6.62857143,12.0571429 7.06218487,11.6302521 7.58991597,11.6302521 L8.07394958,11.6302521 C8.10420168,11.5058824 8.14453782,11.3647059 8.19495798,11.2268908 L7.78151261,10.8168067 C7.6,10.6352941 7.49915966,10.3932773 7.49915966,10.1378151 C7.49915966,9.88235294 7.6,9.64033613 7.78151261,9.45882353 L8.30588235,8.93781513 C8.48739496,8.75630252 8.73277311,8.65546218 8.99159664,8.65546218 L8.99495798,8.65546218 C9.25378151,8.65546218 9.49579832,8.75630252 9.67731092,8.93781513 L10.0941176,9.3512605 C10.2218487,9.30420168 10.3563025,9.2605042 10.4941176,9.22689076 L10.4941176,8.74621849 C10.4941176,8.21848739 10.9277311,7.79159664 11.4554622,7.79159664 L12.1714286,7.79159664 C12.702521,7.79159664 13.1327731,8.21848739 13.1327731,8.74621849 L13.1327731,9.22689076 C13.2705882,9.26386555 13.405042,9.30420168 13.5327731,9.35462185 L13.9495798,8.94117647 C14.3260504,8.56470588 14.9411765,8.56470588 15.3176471,8.94117647 L15.8420168,9.46218487 C16.0268908,9.64369748 16.1243697,9.88571429 16.1243697,10.1411765 C16.1243697,10.3966387 16.0235294,10.6386555 15.8420168,10.8201681 L15.4252101,11.2336134 C15.4722689,11.3613445 15.5159664,11.4957983 15.5529412,11.6302521 L16.0369748,11.6302521 L16.0369748,11.6369748 Z" id="Ajustes-cloud_1Light"></path>
        </g>
    </g>
</svg>

<svg width="24" height="24" viewBox="0 0 24 24" xmlns="http://www.w3.org/2000/svg"><path d="M17.415 19.684c1.227 0 5.22-.366 5.22-5.102 0-4.45-3.522-5.032-5.038-5.073a.496.496 0 01-.464-.363c-1.07-3.966-5.563-4.168-6.45-4.168-1.574 0-6.7.454-6.7 6.293l.007.134a.485.485 0 01-.36.47c-1.758.498-2.648 1.789-2.648 3.836 0 3.647 2.857 4.04 4.084 4.04l12.35-.067zm.572-11.133c1.7.128 5.637.975 5.637 6.034 0 5.788-5.17 6.08-6.206 6.08l-12.342.068C2.622 20.733 0 19.415 0 15.714c0-3.025 1.741-4.205 3.002-4.662C3.136 4.342 9.415 4 10.686 4c.988 0 5.889.225 7.3 4.551zm-6.175 5.735c.917 0 1.344-.424 1.344-1.335 0-.91-.427-1.338-1.344-1.338-.918 0-1.345.424-1.345 1.338 0 .908.427 1.335 1.345 1.335zm0-3.654c1.459 0 2.33.867 2.33 2.316 0 1.449-.871 2.316-2.33 2.316-1.46 0-2.33-.867-2.33-2.316 0-1.449.87-2.316 2.33-2.316zm3.34 2.649h.885l-.027-.69-.857.027a.492.492 0 01-.487-.413 2.983 2.983 0 00-.266-.857.486.486 0 01.094-.565l.656-.649-.525-.494-.628.65a.501.501 0 01-.568.093 2.906 2.906 0 00-.868-.265.491.491 0 01-.416-.484v-.878l-.693.027.024.854a.488.488 0 01-.417.484 3.03 3.03 0 00-.864.262.491.491 0 01-.568-.094L8.97 9.64l-.497.521.652.622a.484.484 0 01.08.588c-.093.172-.198.508-.251.84a.489.489 0 01-.488.41h-.884l.024.69.857-.024c.242 0 .45.175.487.414.054.33.155.669.252.84a.493.493 0 01-.08.588l-.652.65.524.493.625-.648a.497.497 0 01.568-.095c.252.125.541.216.864.266a.491.491 0 01.417.484v.877l.669-.023v-.864c0-.242.178-.447.417-.484.326-.05.601-.138.867-.266a.503.503 0 01.568.094l.655.65.498-.522-.656-.625a.486.486 0 01-.094-.565c.125-.245.212-.534.266-.857a.504.504 0 01.494-.413zm.885-1.644c.531 0 .961.427.961.955v.712c0 .528-.43.955-.961.955h-.484a3.423 3.423 0 01-.128.396l.417.414a.956.956 0 010 1.358l-.524.52a.97.97 0 01-1.368 0l-.417-.413c-.128.05-.262.091-.4.128v.477c0 .528-.43.955-.962.955h-.716a.958.958 0 01-.96-.955v-.48a4.635 4.635 0 01-.4-.125l-.418.414a.958.958 0 01-.682.282h-.003a.958.958 0 01-.686-.282l-.524-.521a.956.956 0 01.003-1.361l.41-.41a3.6 3.6 0 01-.121-.404H7.59a.96.96 0 01-.961-.955v-.712a.96.96 0 01.96-.955h.485c.03-.124.07-.265.121-.403l-.413-.41a.956.956 0 010-1.358l.524-.521a.966.966 0 01.686-.283h.003c.259 0 .5.101.682.283l.417.413c.128-.047.262-.09.4-.124v-.48a.96.96 0 01.961-.955h.716c.532 0 .962.426.962.954v.48c.138.038.272.078.4.129l.417-.414a.97.97 0 011.368 0l.524.521a.956.956 0 010 1.358l-.417.414c.047.127.091.262.128.396h.484v.007z" fill="#5CB615" fill-rule="nonzero"/></svg>
